X: 1
T: Pride Of Cluinte, The
M: 4/4
L: 1/8
R: reel
K: Gmaj
|:GA|B2eB dBBA|GABG AGEG|B2eB dBBA|GABG A2GA|  
B2eB dBBA|GABG AGEG|g2fg edBG| AGEF G2:|
|:z2|gdBG DGBd| (3efg dB GABd|gdBG DGBd| (3efg dB A2Bd|
gdBG DGBd| (3efg dB GABd|g2fg edBG|1 AGEF G2:|2 AGEF G2||
